X: 1
T: Jenny Slater
C: Tom Anderson 1970
R: jig
Z: John Chambers <jc:trillian.mit.edu>
M: 6/8
L: 1/8
K: D
A \
| "D"dcd fed | "G"G3 B2d | "D"Adf "Bm"Adf | "E7"e3 "A7"e2A \
| "D"dcd fed | "G"G3 B2d | "D"Adf "A7"Ace | "D"d3 d2 :|
f/g/ \
| "D"afd "A7"gec | "D"d3 A2F | "G"GBd "D"Adf | "A7"e3 e2f/g/ \
| "D"afd "A7"gec | "D"dAF "G"G2B | "D"Adf "A7"Ace | "D"d3 d2 ||
f/g/ \
| "D"afd "A7"gec | "D"d3 A2F | "G"GBd "D"Adf | "E7"e3 "A7"e2A \
| "D"dcd fed | "G"G3 B2d | "D"Adf "A7"Ace | "D"d3 d2 |]
